src/assets/duotone/BitcoinConvert.svg

<?xml version="1.0" encoding="UTF-8"?>
<svg width="24" height="24" viewBox="0 0 24 24" xmlns="http://www.w3.org/2000/svg">
 <path d="m23 15.22c0.4142 0 0.75 0.3358 0.75 0.75 0 4.2842-3.4658 7.75-7.75 7.75-0.2702 0-0.5195-0.1453-0.6526-0.3804-0.1332-0.2352-0.1295-0.5237 0.0095-0.7554l1.05-1.75c0.2131-0.3552 0.6738-0.4704 1.029-0.2573s0.4703 0.6738 0.2572 1.029l-0.2713 0.4522c2.7691-0.6424 4.8282-3.1215 4.8282-6.0881 0-0.4142 0.3358-0.75 0.75-0.75z" clip-rule="evenodd" fill-rule="evenodd" opacity=".4"/>
 <path d="m6.5782 1.8817c-2.7691 0.64244-4.8282 3.1215-4.8282 6.0881 0 0.41421-0.33579 0.75-0.75 0.75-0.41421 0-0.75-0.33579-0.75-0.75 0-4.2842 3.4658-7.75 7.75-7.75 0.2702 0 0.51952 0.14534 0.65265 0.38048 0.13313 0.23513 0.12949 0.5237-0.00953 0.7554l-1.05 1.75c-0.21311 0.35518-0.67381 0.47036-1.029 0.25725-0.35519-0.21311-0.47036-0.67381-0.25725-1.029l0.27132-0.45219z" clip-rule="evenodd" fill-rule="evenodd" opacity=".4"/>
 <path d="m14.85 15.33c0 3.41-2.76 6.17-6.17 6.17-3.41 0-6.17-2.76-6.17-6.17s2.76-6.17 6.17-6.17c0.16 0 0.31 0.01002 0.48 0.02002 3.03 0.23 5.45 2.65 5.68 5.68 0 0.15 0.01 0.3 0.01 0.47z" opacity=".4"/>
 <path d="m21.5 8.67c0 3.41-2.76 6.17-6.17 6.17h-0.49c-0.23-3.03-2.65-5.45-5.68-5.68v-0.48999c0-3.41 2.76-6.17 6.17-6.17s6.17 2.76 6.17 6.17z"/>
 <path d="m11.12 15.01c0.12-0.25 0.19-0.52 0.19-0.81 0-1-0.88-1.88-1.88-1.88h-0.26v-0.38c0-0.41-0.34-0.75-0.75-0.75s-0.75 0.34-0.75 0.75v0.38h-1.05c-0.41 0-0.75 0.34-0.75 0.75v4.5c0 0.41 0.34 0.75 0.75 0.75h1.05v0.38c0 0.41 0.34 0.75 0.75 0.75s0.75-0.34 0.75-0.75v-0.38h0.66c1.12 0 2.04-0.84 2.04-1.88 0-0.57-0.3-1.09-0.75-1.43zm-3.75-1.19h2.06c0.21 0 0.38 0.23 0.38 0.38 0 0.21-0.17 0.38-0.38 0.38h-2.06v-0.76zm2.46 3.01h-2.47v-0.75h2.46c0.31998 0 0.53998 0.2 0.53998 0.38s-0.21 0.37-0.52998 0.37z"/>
</svg>

<svg width="24" height="24" viewBox="0 0 24 24"  xmlns="http://www.w3.org/2000/svg">
<path opacity="0.4" fill-rule="evenodd" clip-rule="evenodd" d="M23 15.2197C23.4142 15.2197 23.75 15.5555 23.75 15.9697C23.75 20.2539 20.2842 23.7197 16 23.7197C15.7298 23.7197 15.4805 23.5744 15.3474 23.3393C15.2142 23.1041 15.2179 22.8156 15.3569 22.5839L16.4069 20.8339C16.62 20.4787 17.0807 20.3635 17.4359 20.5766C17.7911 20.7897 17.9062 21.2504 17.6931 21.6056L17.4218 22.0578C20.1909 21.4154 22.25 18.9363 22.25 15.9697C22.25 15.5555 22.5858 15.2197 23 15.2197Z" />
<path opacity="0.4" fill-rule="evenodd" clip-rule="evenodd" d="M6.5782 1.88166C3.8091 2.5241 1.75 5.00315 1.75 7.96973C1.75 8.38394 1.41421 8.71973 1 8.71973C0.585786 8.71973 0.25 8.38394 0.25 7.96973C0.25 3.68551 3.71579 0.219727 8 0.219727C8.2702 0.219727 8.51952 0.365071 8.65265 0.600202C8.78578 0.835334 8.78214 1.1239 8.64312 1.3556L7.59312 3.1056C7.38001 3.46078 6.91931 3.57596 6.56413 3.36285C6.20894 3.14974 6.09377 2.68904 6.30688 2.33385L6.5782 1.88166Z" />
<path opacity="0.4" d="M14.8498 15.3302C14.8498 18.7402 12.0898 21.5002 8.67977 21.5002C5.26977 21.5002 2.50977 18.7402 2.50977 15.3302C2.50977 11.9202 5.26977 9.16016 8.67977 9.16016C8.83977 9.16016 8.98977 9.17018 9.15977 9.18018C12.1898 9.41018 14.6098 11.8302 14.8398 14.8602C14.8398 15.0102 14.8498 15.1602 14.8498 15.3302Z" />
<path d="M21.5002 8.66998C21.5002 12.08 18.7402 14.84 15.3302 14.84H14.8402C14.6102 11.81 12.1902 9.38997 9.16016 9.15997V8.66998C9.16016 5.25998 11.9202 2.5 15.3302 2.5C18.7402 2.5 21.5002 5.25998 21.5002 8.66998Z" />
<path d="M11.1201 15.0104C11.2401 14.7604 11.3101 14.4904 11.3101 14.2004C11.3101 13.2004 10.4301 12.3204 9.43012 12.3204H9.17012V11.9404C9.17012 11.5304 8.83012 11.1904 8.42012 11.1904C8.01012 11.1904 7.67012 11.5304 7.67012 11.9404V12.3204H6.62012C6.21012 12.3204 5.87012 12.6604 5.87012 13.0704V15.3204V17.5704C5.87012 17.9804 6.21012 18.3204 6.62012 18.3204H7.67012V18.7004C7.67012 19.1104 8.01012 19.4504 8.42012 19.4504C8.83012 19.4504 9.17012 19.1104 9.17012 18.7004V18.3204H9.83012C10.9501 18.3204 11.8701 17.4804 11.8701 16.4404C11.8701 15.8704 11.5701 15.3504 11.1201 15.0104ZM7.37012 13.8204H9.43012C9.64012 13.8204 9.81012 14.0504 9.81012 14.2004C9.81012 14.4104 9.64012 14.5804 9.43012 14.5804H7.37012V13.8204ZM9.83012 16.8304H7.36012V16.0804H9.42012H9.82012C10.1401 16.0804 10.3601 16.2804 10.3601 16.4604C10.3601 16.6404 10.1501 16.8304 9.83012 16.8304Z" />
</svg>
